X: 7015
T: Chief O'Neill's Favourite
R: hornpipe
M: 4/4
K: Dmixolydian
|fefg afge|fdec dcAG|FEDE FGAB|cAdc A4|
fefg afge|fdec dcAG|FEDF GBAG|=F2 D2 D4|
E|FEFD GFGB|AGAB cABG|Adde fdeg|fdec A4|
=f3g afge|fdec dcAG|FEFD GBAG|=F2 D2 D4|

